X: 10963
M: 6/8
L: 1/8
K: F
(A/B/) |\
c>cc cAd | cAF F>EF | GEC C>GA/B/ |\
c>cc c>Ad | B>cB/A/ G>AB |c>AF E>DE | FFF F2 H|]
E/G/ |\
(e/f/) |\
g>ec =B>AB | c2e Gce | g>ec =BAB | cGe G>AB/c/ |\
"dim..."AFc "dim..."GEc | "dim..."AFc GEc | G>AG F>ED CCC "^D.C."C2 |]



